assets/gas.svg

<?xml version="1.0" encoding="UTF-8"?>
<svg width="17px" height="18px" viewBox="0 0 17 18" version="1.1" xmlns="http://www.w3.org/2000/svg" xmlns:xlink="http://www.w3.org/1999/xlink">
    <!-- Generator: Sketch 47.1 (45422) - http://www.bohemiancoding.com/sketch -->
    <title>Mask</title>
    <desc>Created with Sketch.</desc>
    <defs>
        <path d="M15.77,4.23 L15.78,4.22 L12.06,0.5 L11,1.56 L13.11,3.67 C12.17,4.03 11.5,4.93 11.5,6 C11.5,7.38 12.62,8.5 14,8.5 C14.36,8.5 14.69,8.42 15,8.29 L15,15.5 C15,16.05 14.55,16.5 14,16.5 C13.45,16.5 13,16.05 13,15.5 L13,11 C13,9.9 12.1,9 11,9 L10,9 L10,2 C10,0.9 9.1,0 8,0 L2,0 C0.9,0 0,0.9 0,2 L0,18 L10,18 L10,10.5 L11.5,10.5 L11.5,15.5 C11.5,16.88 12.62,18 14,18 C15.38,18 16.5,16.88 16.5,15.5 L16.5,6 C16.5,5.31 16.22,4.68 15.77,4.23 Z M8,7 L2,7 L2,2 L8,2 L8,7 Z M14,7 C13.45,7 13,6.55 13,6 C13,5.45 13.45,5 14,5 C14.55,5 15,5.45 15,6 C15,6.55 14.55,7 14,7 Z" id="path-1"></path>
    </defs>
    <g id="Icons" stroke="none" stroke-width="1" fill="none" fill-rule="evenodd">
        <g id="amenitiy-/-gas" transform="translate(-4.000000, -3.000000)">
            <g id="gas">
                <g id="Icon-🎨" transform="translate(4.000000, 3.000000)">
                    <mask id="mask-2" fill="white">
                        <use xlink:href="#path-1"></use>
                    </mask>
                    <use id="Mask" fill="#001833" fill-rule="nonzero" xlink:href="#path-1"></use>
                </g>
            </g>
        </g>
    </g>
</svg>

<?xml version="1.0" encoding="utf-8"?>
<!-- Generator: Adobe Illustrator 21.1.0, SVG Export Plug-In . SVG Version: 6.00 Build 0)  -->
<svg version="1.1" id="Layer_1" xmlns="http://www.w3.org/2000/svg" xmlns:xlink="http://www.w3.org/1999/xlink" x="0px" y="0px"
	 viewBox="0 0 17 18" style="enable-background:new 0 0 17 18;" xml:space="preserve">
<style type="text/css">
	.st0{fill:#001833;}
</style>
<path id="path-1_1_" class="st0" d="M15.8,4.2L15.8,4.2l-3.7-3.7L11,1.6l2.1,2.1C12.2,4,11.5,4.9,11.5,6c0,1.4,1.1,2.5,2.5,2.5
	c0.4,0,0.7-0.1,1-0.2v7.2c0,0.5-0.4,1-1,1s-1-0.5-1-1V11c0-1.1-0.9-2-2-2h-1V2c0-1.1-0.9-2-2-2H2C0.9,0,0,0.9,0,2v16h10v-7.5h1.5v5
	c0,1.4,1.1,2.5,2.5,2.5s2.5-1.1,2.5-2.5V6C16.5,5.3,16.2,4.7,15.8,4.2z M8,7H2V2h6V7z M14,7c-0.6,0-1-0.4-1-1s0.4-1,1-1s1,0.4,1,1
	S14.6,7,14,7z"/>
</svg>
